app/src/main/assets/symbols/amenity/post_box.svg

<?xml version="1.0" encoding="UTF-8" standalone="no"?>
<svg
   xmlns:dc="http://purl.org/dc/elements/1.1/"
   xmlns:cc="http://creativecommons.org/ns#"
   xmlns:rdf="http://www.w3.org/1999/02/22-rdf-syntax-ns#"
   xmlns:svg="http://www.w3.org/2000/svg"
   xmlns="http://www.w3.org/2000/svg"
   version="1.1"
   width="12"
   height="12"
   viewBox="0 0 12 12"
   id="svg2">
  <metadata
     id="metadata8">
    <rdf:RDF>
      <cc:Work
         rdf:about="">
        <dc:format>image/svg+xml</dc:format>
        <dc:type
           rdf:resource="http://purl.org/dc/dcmitype/StillImage" />
        <dc:title></dc:title>
      </cc:Work>
    </rdf:RDF>
  </metadata>
  <defs
     id="defs6" />
  <rect
     width="12"
     height="12"
     x="0"
     y="0"
     id="canvas"
     style="fill:none;stroke:none;visibility:hidden" />
  <path
     d="M 0.99999985,0 C 0.45762681,0 -2.9305082e-7,0.4576271 -1.9e-7,0.9999999 L 0,2 c 1.0627117e-7,0.559322 0.48861696,1 1,1 l 0,-2 10,0 0,2 c 0.511382,0 1,-0.4857094 1,-1 L 12,0.9999999 C 12,0.4576271 11.508475,0 11,0 Z M 7.4999865,11.987788 2,12 2,2 7.4777817,1.987813 4.4888915,6.9944615 Z M 10,12 8.9999828,11.984457 5.9888878,6.9911308 8.977778,1.984482 10,2 Z"
	 style="fill:#734a08;fill-opacity:1"
     id="path4258" />
</svg>

<?xml version="1.0" encoding="UTF-8"?>
<svg version="1.1" viewBox="0 0 12 12" xmlns="http://www.w3.org/2000/svg" xmlns:cc="http://creativecommons.org/ns#" xmlns:dc="http://purl.org/dc/elements/1.1/" xmlns:rdf="http://www.w3.org/1999/02/22-rdf-syntax-ns#">
<metadata>
<rdf:RDF>
<cc:Work rdf:about="">
<dc:format>image/svg+xml</dc:format>
<dc:type rdf:resource="http://purl.org/dc/dcmitype/StillImage"/>
<dc:title/>
</cc:Work>
</rdf:RDF>
</metadata>
<rect width="12" height="12" fill="none" visibility="hidden"/>
<path d="m1 0c-0.54237 0-1 0.45763-1 1l1.9e-7 1c1.0627e-7 0.55932 0.48862 1 1 1v-2h10v2c0.51138 0 1-0.48571 1-1v-1c0-0.54237-0.49152-1-1-1zm6.5 11.988-5.5 0.012212v-10l5.4778-0.012187-2.9889 5.0066zm2.5 0.012212-1-0.015543-3.0111-4.9933 2.9889-5.0066 1.0222 0.015518z" fill="#734a08"/>
</svg>
